X:1
T:Cal-Lib Song
M:4/4
L:1/8
K:C
 e3 g f2 e2| f3 a d4| B3 d f2 a2| g3 f e4| c3 e g2 c'b| d'3 c' a2 aa|\
 g2 ge f2 d2| cg gg a2 g2| z2 ee gg fe| f4 d4| z2 BB dd aa| g4 e4|\
 z2 cc ee gg| c'4 a4| z2 ge f2 d2| cg gg a2 g2| c4 a4| z2 gg a2 b2|\
 c'4 z4|
